X:1
T:The Hill Top
T:Barr an chNuic
M:6/8
L:1/8
K:F
A/G/|F>ED FGA|c3 d2c/d/|AGF G2F|(D3 D2) F/A/|cdA cde|
f3 e2f|gec d2c||(c3 c2)A|cdA cde|f3 gfe|dcA {e}dcA|
(G3 G2) A/G/|F>ED FGA|c3 d2c|AGF G2F|F3 z3||
</abc>

